common/resources/fonts/svg/edit.svg

<?xml version="1.0" encoding="UTF-8" standalone="no"?>
<svg width="1024px" height="1024px" viewBox="0 0 1024 1024" version="1.1" xmlns="http://www.w3.org/2000/svg" xmlns:xlink="http://www.w3.org/1999/xlink">
    <!-- Generator: Sketch 3.7.1 (28215) - http://www.bohemiancoding.com/sketch -->
    <title>edit</title>
    <desc>Created with Sketch.</desc>
    <defs></defs>
    <g id="Page-1" stroke="none" stroke-width="1" fill="none" fill-rule="evenodd">
        <g id="edit" fill="#000000">
            <path d="M322.077539,862.918621 L102,922.962484 L161.73235,702.801107 L601.558655,262.356708 L761.898913,422.474222 L322.076717,862.918621 L322.077539,862.918621 Z M822.015105,117.797567 C810.791608,107.264494 797.92671,101.99097 783.425343,102.000012 C768.914935,102.008231 756.391139,107.302303 745.862175,117.852637 L654.929242,208.907216 L815.2695,369.02473 L906.202433,277.965219 C916.731397,267.418995 922.00903,254.87876 921.999988,240.368352 C921.991769,225.871095 916.693588,213.014416 906.151473,201.803247 L822.015105,117.797567 L822.015105,117.797567 Z" id="Shape"></path>
        </g>
    </g>
</svg>

<svg width="1024" height="1024" viewBox="0 0 1024 1024">
    <path d="M322.078 862.919L102 922.962l59.732-220.16L601.56 262.356 761.9 422.473 322.077 862.92zm499.937-745.121c-11.223-10.534-24.088-15.807-38.59-15.798-14.51.008-27.034 5.302-37.563 15.853l-90.933 91.054 160.34 160.118 90.933-91.06c10.53-10.546 15.807-23.086 15.798-37.597-.008-14.497-5.306-27.354-15.849-38.565l-84.136-84.005z" fill-rule="evenodd"/>
</svg>
